X: 133
T: Ned of the Hill
N:"Slow"
B:O'Neill's 133
Z:Transcribed by henrik.norbeck@mailbox.swipnet.se
M:3/4
L:1/8
K:G
(D>E)"Segno"|G2 B2 (AG)|B2 g2 (f>d)|(ed/B/) A2 B2|T(G>F) F2 (D>E)|
G2 B2 (A>G)|B2 g2 (f>d)|(ed/B/) TA2 B2|(A3/2G/4A/4)G2||
(de/f/)|g2 (fe) (a>g)|f2 (ed/B/) .d(g/f/)|e>d (B/A/G/E/) (G/A/B/d/)|(e>f) (g>a) (g/a/b)|
G2 B2 (AG)|B2 g2 (fd)|(e/d/B/G/) .A2 (G/A/B/d/)|(e/d/B/G/) (A>G) G2"Segno"||


